packages/bezier-icons/icons/power.svg

<svg width="24" height="24" viewBox="0 0 24 24" fill="none" xmlns="http://www.w3.org/2000/svg">
<path fill-rule="evenodd" clip-rule="evenodd" d="M12 12C11.4477 12 11 11.5523 11 11V3C11 2.44772 11.4477 2 12 2C12.5523 2 13 2.44772 13 3V11C13 11.5523 12.5523 12 12 12ZM2.0002 12.0001C2.0002 17.5141 6.4862 22.0001 12.0002 22.0001C17.5142 22.0001 22.0002 17.5141 22.0002 12.0001C22.0002 8.51425 20.1517 5.27339 17.2121 3.46936C16.6987 3.15435 16.0449 3.39259 15.7879 3.93728C15.5738 4.39119 15.7716 4.92854 16.1981 5.19309C18.5332 6.64147 20.0002 9.22331 20.0002 12.0001C20.0002 16.4111 16.4112 20.0001 12.0002 20.0001C7.5892 20.0001 4.0002 16.4111 4.0002 12.0001C4.0002 9.22439 5.46698 6.64197 7.80183 5.19338C8.2285 4.92867 8.42633 4.391 8.21187 3.93698C7.95465 3.39242 7.30078 3.15441 6.78752 3.4695C3.8479 5.27409 2.0002 8.51419 2.0002 12.0001Z" fill="#313234"/>
</svg>

<svg xmlns="http://www.w3.org/2000/svg" width="24" height="24" fill="none" viewBox="0 0 24 24"><path fill="#313234" fill-rule="evenodd" d="M12 12a1 1 0 0 1-1-1V3a1 1 0 1 1 2 0v8a1 1 0 0 1-1 1M2 12c0 5.514 4.486 10 10 10s10-4.486 10-10c0-3.486-1.848-6.727-4.788-8.53-.513-.316-1.167-.077-1.424.467-.214.454-.016.992.41 1.256A8.05 8.05 0 0 1 20 12c0 4.411-3.589 8-8 8s-8-3.589-8-8a8.05 8.05 0 0 1 3.802-6.807c.427-.264.624-.802.41-1.256-.257-.545-.911-.783-1.424-.467C3.848 5.274 2 8.514 2 12" clip-rule="evenodd"/></svg>
